X:301
T:Marlborough's Victory.
C:John Malchair's Third Collection of Tunes
F:https://www.vwml.org/record/Malchair/3619/p30
F:www.vwml.org/topics/historic-dance-and-tune-books/Malchair
Z:Eric Conrad Jan 2020
N:NB1 No repeats in MS.  Assuming parts are repeated.
M:C
L:1/8
R:reel
K:D
P:A
|: A2 | d2dd dddd | d6 cB | AGFG AGFG | G4 D2de |
f2ff ffff | f6 gf | edcd edcd | e6 A2 |
d2df e2ef | d2df e2g^f | fedc B3A | A6 :|
P:B
|: E2 | A2AA AAAA | A6 A2 | dcde d2A2 | d6 e2 |
ffff eeee | ffff eeee | f^gfg =g3(f/g/) | a6 ag |
fedc B2gf | edcB A2dc | BAGF E2B2 | e6 ef |
g2fe f2d2 | efed c2BA | d2ef B2c2 | d6 :|


